X: 39949
T: Thornton, The
R: jig
M: 6/8
K: Amixolydian
|:c2A ABA|d2e fed|c2A ABA|B2g gdB|
c2A ABA|d2e fec|d2f c2e|B2g gdB:|
|:c2e efe|ef^g a3|c2e efe|B2g gdB|
c2e efe|ef^g a2e|d2f c2e|B2g gdB:|

